picto/train-right.svg

<svg class="color-immutable" width="24" height="24" viewBox="0 0 24 24" fill="none" xmlns="http://www.w3.org/2000/svg"><g clip-path="url(#a)"><path d="M0 22.5v-21C0 .675.675 0 1.5 0h21c.825 0 1.5.675 1.5 1.5v21c0 .825-.675 1.5-1.5 1.5h-21C.675 24 0 23.325 0 22.5Z" fill="#2D327D"/><path d="M20.711 18.862a.375.375 0 0 0 .371-.428l-.319-2.236h-3.889v2.664h3.837ZM11.634 8.193H3V7.5h7.05L7.837 6 12 3.637 16.137 6h.025l-2.213 1.5h4.596c.56 0 1.035.412 1.114.966l1.003 7.022H2.999v-3.712h8.634a.366.366 0 0 0 0-.732H2.999v-.694h8.634a.366.366 0 0 0 0-.732H2.999v-.693h8.634a.366.366 0 0 0 .001-.732Zm5.015 3.207c0 .207.168.375.375.375h1.955a.375.375 0 0 0 .371-.428l-.405-2.831a.375.375 0 0 0-.371-.322h-1.551a.375.375 0 0 0-.375.375V11.4h.001Zm-3.97-3.9 2.125-1.44-2.806-1.602-2.813 1.596L11.319 7.5h1.36ZM7.791 18.021a1.913 1.913 0 1 1 3.826.002 1.913 1.913 0 0 1-3.826-.002ZM12.299 18.021a1.913 1.913 0 1 1 3.826.002 1.913 1.913 0 0 1-3.826-.002ZM21 3v.375H3V3h18ZM3 21v-.712h18V21H3ZM3 16.313V16.2h4.125v2.662H3v-2.549Z" fill="#fff"/></g><defs><clipPath id="a"><path fill="#fff" d="M0 0h24v24H0z"/></clipPath></defs></svg>

<svg class="color-immutable" width="24" height="24" viewBox="0 0 24 24" fill="none" xmlns="http://www.w3.org/2000/svg"><path d="M0 22.5V1.5C0 0.675 0.675 0 1.5 0H22.5C23.325 0 24 0.675 24 1.5V22.5C24 23.325 23.325 24 22.5 24H1.5C0.675 24 0 23.325 0 22.5Z" fill="#2D327D"/><path d="M20.711 18.862C20.918 18.862 21.086 18.694 21.086 18.487C21.086 18.469 21.085 18.451 21.082 18.434L20.763 16.198H16.874V18.862H20.711Z" fill="white"/><path d="M11.634 8.193H2.99999V7.5H10.05L7.83699 6L12 3.637L16.137 6H16.162L13.949 7.5H18.545C19.105 7.5 19.58 7.912 19.659 8.466L20.662 15.488H2.99899V11.776H11.633C11.835 11.776 11.999 11.612 11.999 11.41C11.999 11.208 11.835 11.044 11.633 11.044H2.99899V10.35H11.633C11.835 10.35 11.999 10.186 11.999 9.984C11.999 9.782 11.835 9.618 11.633 9.618H2.99899V8.925H11.633C11.835 8.925 11.999 8.761 11.999 8.559C11.999 8.357 11.835 8.193 11.634 8.193ZM16.649 11.4C16.649 11.607 16.817 11.775 17.024 11.775H18.979C19.186 11.775 19.354 11.607 19.354 11.4C19.354 11.382 19.353 11.364 19.35 11.347L18.945 8.516C18.919 8.331 18.76 8.194 18.574 8.194H17.023C16.816 8.194 16.648 8.362 16.648 8.569V11.4H16.649ZM12.679 7.5L14.804 6.06L11.998 4.458L9.18499 6.054L11.319 7.5H12.679Z" fill="white"/><path d="M7.79099 18.021C7.79099 16.965 8.64799 16.109 9.70399 16.109C10.759 16.109 11.616 16.966 11.616 18.021C11.616 19.077 10.759 19.934 9.70399 19.934C8.64699 19.933 7.79099 19.077 7.79099 18.021Z" fill="white"/><path d="M12.299 18.021C12.299 16.965 13.156 16.109 14.212 16.109C15.268 16.109 16.124 16.966 16.124 18.021C16.124 19.077 15.267 19.934 14.212 19.934C13.156 19.933 12.299 19.077 12.299 18.021Z" fill="white"/><path d="M21 3V3.375H3V3H21Z" fill="white"/><path d="M3 21V20.288H21V21H3Z" fill="white"/><path d="M3 16.313V16.2H7.125V18.862H3V16.313Z" fill="white"/></svg>
